src/assets/desktop/antix.svg

<svg width="65" height="24" viewBox="0 0 65 24" fill="none" xmlns="http://www.w3.org/2000/svg">
<path d="M2.61295 0.0621179L2.69363 0C4.37675 2.07083 9.17173 7.69551 11.9293 7.69551C14.0593 7.69551 15.2859 4.40186 15.4528 3.92599L15.55 3.96061C15.55 3.96061 14.0201 8.32841 15.458 9.4792C16.8719 10.6107 22.822 8.70042 23.3313 8.53584L23.3603 8.63481C23.3603 8.63481 16.5228 10.7577 16.0883 12.7811C15.7777 14.2272 17.5584 16.2693 18.0338 16.7932L17.9622 16.8636C17.9622 16.8636 15.8929 14.4951 14.3529 15.1572C12.0627 16.1422 10.7533 23.0301 10.5948 24L10.4938 23.9806C10.4938 23.9806 11.9305 16.2188 8.33186 14.4779C6.3103 13.4994 1.32061 14.7481 0.529017 14.9502L0.5 14.8488C0.5 14.8488 7.47898 13.0629 7.47898 9.13692C7.47898 5.95927 2.61295 0.0621179 2.61295 0.0621179ZM42.8475 10.457C42.2854 10.0686 41.5164 9.87159 40.5625 9.87159C39.337 9.87159 38.3188 10.3128 37.6062 11.1501V10.1674V10.0794H37.521H35.5319H35.4466V10.1674V18.0502V18.1382H35.5319H37.521H37.6062V18.0502V13.8114C37.6062 12.0845 39.0474 11.6235 39.8992 11.6235C41.5415 11.6235 41.7312 12.609 41.7312 13.3503V18.0504V18.1383H41.8163H43.8055H43.8906V18.0504V12.6959C43.8901 11.6886 43.5392 10.9357 42.8475 10.457ZM50.3245 16.5365L48.9401 16.5651C48.362 16.5651 48.3046 16.186 48.3046 15.2549V11.7432H50.2955H50.3808V11.6553V10.1681V10.0801H50.2955H48.3046V7.72887V7.57657L48.1769 7.65335L46.1877 8.84336L46.1452 8.86863V8.91902V10.0804H44.6448H44.5597V10.1684V11.6556V11.7435H44.6448H46.1452V15.85C46.1452 17.3407 46.3325 18.3174 48.839 18.3174C49.4704 18.3174 49.8753 18.2677 50.3785 18.1973L50.4523 18.1867V18.11V16.6229V16.532L50.3643 16.535L50.3245 16.5365ZM51.6902 10.0797H51.6051V10.1677V18.0505V18.1384H51.6902H53.6794H53.7647V18.0505V10.1677V10.0797H53.6794H51.6902ZM51.6902 7.1645H51.6051V7.25244V8.91832V9.00626H51.6902H53.6794H53.7647V8.91832V7.25244V7.1645H53.6794H51.6902ZM64.3762 17.9931L60.9804 13.9898L64.1457 10.2256L64.2683 10.0797H64.0814H61.5159H61.4751L61.4494 10.1125L59.513 12.5852L57.6186 10.1131L57.5932 10.0797H57.5517H54.9861H54.8003L54.9213 10.225L58.0593 13.9898L54.6772 17.9931L54.554 18.1384H54.7414H57.3069H57.3472L57.3728 18.1062L59.5114 15.3949L61.5932 18.1051L61.6186 18.1384H61.6601H64.3121H64.5L64.3762 17.9931ZM33.1911 7.1645H31.6601H30.7095H30.6703L30.6448 7.19549L21.7339 17.9935L21.6142 18.1383H21.7987H24.2802H24.3194L24.345 18.1073L26.4795 15.5203H31.575V18.0498V18.1377H31.6601H33.6493H33.7346V18.0498V7.25231V7.16436H33.6493L33.1911 7.1645ZM28.0116 13.6646L31.575 9.34659V13.6646H28.0116Z" fill="#090C21"/>
</svg>

<svg xmlns="http://www.w3.org/2000/svg" width="65" height="24" fill="none"><path fill="#090C21" d="M2.613.062 2.693 0c1.684 2.07 6.479 7.696 9.236 7.696 2.13 0 3.357-3.294 3.524-3.77l.097.035s-1.53 4.367-.092 5.518c1.414 1.132 7.364-.779 7.873-.943l.03.099s-6.838 2.123-7.273 4.146c-.31 1.446 1.47 3.488 1.946 4.012l-.072.07s-2.07-2.368-3.61-1.706c-2.29.985-3.599 7.873-3.757 8.843l-.101-.02s1.437-7.761-2.162-9.502c-2.022-.979-7.011.27-7.803.472l-.029-.1s6.979-1.786 6.979-5.712C7.479 5.96 2.613.063 2.613.063m40.235 10.395c-.563-.388-1.332-.585-2.285-.585-1.226 0-2.244.44-2.957 1.278V10.08h-2.159v8.059h2.159v-4.327c0-1.726 1.441-2.187 2.293-2.187 1.642 0 1.832.985 1.832 1.726v4.788h2.16v-5.442c0-1.007-.352-1.76-1.044-2.239m7.477 6.08-1.385.028c-.578 0-.635-.379-.635-1.31v-3.512h2.076V10.08h-2.076V7.577l-.128.076-1.99 1.19-.042.026v1.211H44.56v1.663h1.585v4.107c0 1.49.188 2.467 2.694 2.467.631 0 1.036-.05 1.54-.12l.073-.01v-1.655l-.088.003zm1.365-6.457h-.085v8.058h2.16V10.08zm0-2.915h-.085v1.841h2.16V7.165zm12.686 10.828L60.98 13.99l3.166-3.764.122-.146h-2.792l-.027.033-1.936 2.472-1.894-2.472-.026-.033H54.8l.121.145 3.138 3.765-3.382 4.003-.123.145h2.793l.026-.032 2.138-2.711 2.082 2.71.026.033H64.5zM33.191 7.165H30.67l-.025.03-8.911 10.799-.12.144h2.706l.025-.03 2.135-2.588h5.095v2.618h2.16V7.164h-.544m-5.18 6.5 3.564-4.318v4.318z"/></svg>
